packages/calcite-ui-icons/icons/sequential-navigation-16.svg

<?xml version="1.0" encoding="UTF-8"?><svg id="icons" xmlns="http://www.w3.org/2000/svg" viewBox="0 0 16 16"><defs><style>.cls-1{fill:none;}</style></defs><path d="M3,2v2H1v11h13v-1h2V2H3ZM13,14H2V5h11v9ZM15,13h-1V4H4v-1h11v10ZM5.5,12l-2.5-2.5,2.5-2.5h1.41406l-2.5,2.5,2.5,2.5h-1.41406ZM8.08594,12l2.5-2.5-2.5-2.5h1.41406l2.5,2.5-2.5,2.5h-1.41406Z"/><rect class="cls-1" x="0" width="16" height="16"/></svg>

<svg xmlns="http://www.w3.org/2000/svg" viewBox="0 0 16 16"><path d="M3 2v2H1v11h13v-1h2V2H3zm10 12H2V5h11v9zm2-1h-1V4H4V3h11v10zm-9.5-1L3 9.5 5.5 7h1.414l-2.5 2.5 2.5 2.5H5.5zm2.586 0l2.5-2.5-2.5-2.5H9.5L12 9.5 9.5 12H8.086z"/><path fill="none" d="M0 0h16v16H0z"/></svg>
